X: 1
T: Hora Mamtera  [Bm]
O: Israel
I:choreographer V.Cohen
C:M.Wilensky
M: 2/4
L: 1/8
Z: 2010 John Chambers <jc:trillian.mit.edu>
S: handwritten MS of unknown origin, recordings
K: Bm
[|"Bm"B2 f2 | "A"e2 a2 \
| "Bm"fe f2 | z B2 d \
| "A"c2 e2 | dc BA \
| "Bm"B2 f2 | "A"e2 a2 |
| "Bm"fe f2 | z f2 a \
| "E"^g2 b2 | "Fm"za a{^g}f \
| "Bm"b2 b2 | b2 c'2 \
| "Fm"a^g a2 | "Bm"z b2 c' |
| d'2 c'2 | ba fa \
| "Bm"b2 b2 | b2 c'2 \
| "Fm"a^g a2 | "Bm"z b2 c' \
| d'2 c'2 | "E"ba ^ge ||
||"Fm"(f/e/ f3) | (f/e/ f3) \
| "F7"kf2 kf2 | kf2 kf2 \
| "Em"z e2 d | e2 f2 \
| "D"d2 B2 | "A"A2 z2 |
| "D"z d2 d | "A"e2 a2 \
| "D"fg fe | "A"e2 fg \
| "Fm"a2 a2 | a2 g2 \
| g f3- | "F7"f2 z |
| "Bm"z b2 c' | d'c' b2 \
| "Fm"a2 f2 | a4 \
| "Em"z g2 a | ba g2 \
| "Bm"f2 b2 | "A"e2 de |
| "D"f2 a2 | "E"^ga/g/ fe \
| "Fm"f4 | "D"a4 \
| "G"b2 d'2 | "A"c'b "Fm"c'/b/a \
| "Bm"b4- | b2 z2 |]
